X: 10263
T: Doctor O'Neill
R: jig
M: 6/8
K: Dmajor
dcd AFD|E2F G2 A|B^AB BB/c/d|AGF EFA|
d2 d AFD|E2 F G2 A|BG/A/B Bcd|AFD D2:|
d2 d ceA|dfe dcB|AFA Bcd|AGF EFA|
ded ceA|dg/f/e dcB|AF/G/A Bcd|AFD D2:|
f^ef afd|dcd fed|gbg f/g/af|gfg e2 g|
fAf afd|d2 d fed|gfg eag|fdc d2:|
fd/e/f ece|dcB A2 B|AFd AF/G/d|AGF EF/G/A|
f2 f e2 c|dcB A2 A|B^AB BB/c/d|AFD D2:|
FAF GBG|FAF FED|F2 F GFG|AFD D2 G|
F2 F GBG|F/G/AF FED|BF/G/A/ Bcd|AFD D2:|

